Origami/16x16/apps/dotpeek.svg

<svg width="16" height="16" version="1" xmlns="http://www.w3.org/2000/svg">
 <path d="m8 0h-7.2c-0.4432 0-0.8 0.3568-0.8 0.8v7.2h8z" style="fill:#cf4f8c"/>
 <path d="m8 0h7.2c0.4432 0 0.8 0.3568 0.8 0.8v7.2h-8z" style="fill:#14ddb1"/>
 <path d="m8 16h-7.2c-0.4432 0-0.8-0.3568-0.8-0.8v-7.2h8z" style="fill:#14ddb1"/>
 <path d="m8 16h7.2c0.4432 0 0.8-0.3568 0.8-0.8v-7.2h-8z" style="fill:#6655e4"/>
 <rect x="2" y="2" width="12" height="12" style="fill:#3f3f3f"/>
 <path d="m3.5071212 11.5h3.9999998" style="fill:none;stroke-linecap:round;stroke:#ffffff"/>
 <path d="m3.5071212 7.5s2.021891 0.175125 1.9999995-1.999999c-0.02189-2.175132-1.9999995-2.0000015-1.9999995-2.0000015m-0.00705 3.9967935v-3.999999" style="fill:none;stroke-linecap:round;stroke-linejoin:bevel;stroke-width:.99999994;stroke:#ffffff"/>
 <path d="m7.507072 5.49995s2.000001 0.23225 2.000001-0.9999985c0-1.2322505-2.000001-1.0000005-2.000001-1.0000005m4.9e-5 4.00005v-4.000001" style="fill:none;stroke-linecap:round;stroke-linejoin:bevel;stroke-width:.99999994;stroke:#ffffff"/>
</svg>

<svg xmlns="http://www.w3.org/2000/svg" width="16" height="16" version="1">
 <path style="fill:#cf4f8c" d="M 8,0 H 0.8 C 0.3568,0 0,0.3568 0,0.8 V 8 h 8 z"/>
 <path style="fill:#14ddb1" d="m 8,0 h 7.2 C 15.6432,0 16,0.3568 16,0.8 V 8 H 8 Z"/>
 <path style="fill:#14ddb1" d="M 8,16 H 0.8 C 0.3568,16 0,15.6432 0,15.2 V 8 h 8 z"/>
 <path style="fill:#6655e4" d="m 8,16 h 7.2 C 15.6432,16 16,15.6432 16,15.2 V 8 H 8 Z"/>
 <rect style="fill:#3f3f3f" width="12" height="12" x="2" y="2"/>
 <path style="fill:none;stroke:#ffffff;stroke-linecap:round" d="M 3.5071212,11.5 H 7.507121"/>
 <path style="fill:none;stroke:#ffffff;stroke-width:0.99999994;stroke-linecap:round;stroke-linejoin:bevel" d="m 3.5071212,7.5 c 0,0 2.021891,0.175125 1.9999995,-1.999999 C 5.4852307,3.324869 3.5071212,3.4999995 3.5071212,3.4999995 M 3.5000712,7.496793 V 3.496794"/>
 <path style="fill:none;stroke:#ffffff;stroke-width:0.99999994;stroke-linecap:round;stroke-linejoin:bevel" d="m 7.507072,5.49995 c 0,0 2.000001,0.23225 2.000001,-0.9999985 0,-1.2322505 -2.000001,-1.0000005 -2.000001,-1.0000005 m 4.9e-5,4.00005 V 3.5"/>
</svg>
